app/assets/images/icons/active/thumb--tack.svg

<?xml version="1.0" encoding="UTF-8" standalone="no"?>
<svg width="32px" height="232px" viewBox="0 0 32 232" version="1.1" xmlns="http://www.w3.org/2000/svg" xmlns:xlink="http://www.w3.org/1999/xlink" xmlns:sketch="http://www.bohemiancoding.com/sketch/ns">
    <title>thumb--tack</title>
    <description>Created with Sketch (http://www.bohemiancoding.com/sketch)</description>
    <defs></defs>
    <g id="Graphics" stroke="none" stroke-width="1" fill="none" fill-rule="evenodd" sketch:type="MSPage">
        <path d="M21.468856,138.222202 C21.433856,137.249202 23.033856,135.744202 23.033856,135.744202 C23.033856,135.744202 24.433856,134.270202 25.466856,134.270202 C26.183856,134.270202 26.902856,134.808202 27.627856,134.812202 C27.800856,134.812202 27.957856,134.784202 28.117856,134.720202 C28.281856,134.654202 28.398856,134.572202 28.515856,134.474202 C28.541856,134.450202 28.576856,134.441202 28.607856,134.413202 C28.658856,134.360202 28.654856,134.339202 28.668856,134.319202 C29.125856,133.777202 29.113856,132.981202 28.607856,132.473202 L22.525856,126.394202 C22.017856,125.886202 21.220856,125.874202 20.679856,126.329202 C20.662856,126.347202 20.638856,126.342202 20.621856,126.358202 C20.558856,126.421202 20.548856,126.456202 20.525856,126.485202 C20.427856,126.601202 20.345856,126.718202 20.293856,126.835202 C20.214856,127.043202 20.185856,127.198202 20.185856,127.355202 C20.191856,128.096202 20.730856,128.816202 20.730856,129.531202 C20.730856,130.567202 19.255856,131.967202 19.255856,131.967202 C19.256856,131.966202 17.748856,133.567202 16.777856,133.531202 C14.818856,133.457202 14.664856,132.944202 13.062856,133.053202 C11.929856,133.132202 10.945856,134.310202 10.945856,134.310202 L14.646856,139.184202 L11.214856,142.617202 L8.00085604,146.876202 L8.12585604,146.999202 L12.384856,143.785202 L15.816856,140.354202 L20.689856,144.054202 C20.689856,144.054202 21.867856,143.069202 21.945856,141.936202 C22.056856,140.337202 21.541856,140.180202 21.468856,138.222202 Z M21.468856,138.222202" id="thumb-tack--white" fill="#206FAC" sketch:type="MSShapeGroup"></path>
        <path d="M18.968,98.2222024 C18.933,97.2492024 20.533,95.7442024 20.533,95.7442024 C20.533,95.7442024 21.933,94.2702024 22.966,94.2702024 C23.683,94.2702024 24.402,94.8082024 25.127,94.8122024 C25.3,94.8122024 25.457,94.7842024 25.617,94.7202024 C25.781,94.6542024 25.898,94.5722024 26.015,94.4742024 C26.041,94.4502024 26.076,94.4412024 26.107,94.4132024 C26.158,94.3602024 26.154,94.3392024 26.168,94.3192024 C26.625,93.7772024 26.613,92.9812024 26.107,92.4732024 L20.025,86.3942024 C19.517,85.8862024 18.72,85.8742024 18.179,86.3292024 C18.162,86.3472024 18.138,86.3422024 18.121,86.3582024 C18.058,86.4212024 18.048,86.4562024 18.025,86.4852024 C17.927,86.6012024 17.845,86.7182024 17.793,86.8352024 C17.714,87.0432024 17.685,87.1982024 17.685,87.3552024 C17.691,88.0962024 18.23,88.8162024 18.23,89.5312024 C18.23,90.5672024 16.755,91.9672024 16.755,91.9672024 C16.756,91.9662024 15.248,93.5672024 14.277,93.5312024 C12.318,93.4572024 12.164,92.9442024 10.562,93.0532024 C9.429,93.1322024 8.445,94.3102024 8.445,94.3102024 L12.146,99.1842024 L8.714,102.617202 L5.5,106.876202 L5.625,106.999202 L9.884,103.785202 L13.316,100.354202 L18.189,104.054202 C18.189,104.054202 19.367,103.069202 19.445,101.936202 C19.556,100.337202 19.041,100.180202 18.968,98.2222024 Z M18.968,98.2222024" id="thumb-tack--subdued-grey" fill="#FFFFFF" sketch:type="MSShapeGroup"></path>
        <path d="M18.968,58.2222024 C18.933,57.2492024 20.533,55.7442024 20.533,55.7442024 C20.533,55.7442024 21.933,54.2702024 22.966,54.2702024 C23.683,54.2702024 24.402,54.8082024 25.127,54.8122024 C25.3,54.8122024 25.457,54.7842024 25.617,54.7202024 C25.781,54.6542024 25.898,54.5722024 26.015,54.4742024 C26.041,54.4502024 26.076,54.4412024 26.107,54.4132024 C26.158,54.3602024 26.154,54.3392024 26.168,54.3192024 C26.625,53.7772024 26.613,52.9812024 26.107,52.4732024 L20.025,46.3942024 C19.517,45.8862024 18.72,45.8742024 18.179,46.3292024 C18.162,46.3472024 18.138,46.3422024 18.121,46.3582024 C18.058,46.4212024 18.048,46.4562024 18.025,46.4852024 C17.927,46.6012024 17.845,46.7182024 17.793,46.8352024 C17.714,47.0432024 17.685,47.1982024 17.685,47.3552024 C17.691,48.0962024 18.23,48.8162024 18.23,49.5312024 C18.23,50.5672024 16.755,51.9672024 16.755,51.9672024 C16.756,51.9662024 15.248,53.5672024 14.277,53.5312024 C12.318,53.4572024 12.164,52.9442024 10.562,53.0532024 C9.429,53.1322024 8.445,54.3102024 8.445,54.3102024 L12.146,59.1842024 L8.714,62.6172024 L5.5,66.8762024 L5.625,66.9992024 L9.884,63.7852024 L13.316,60.3542024 L18.189,64.0542024 C18.189,64.0542024 19.367,63.0692024 19.445,61.9362024 C19.556,60.3372024 19.041,60.1802024 18.968,58.2222024 Z M18.968,58.2222024" id="thumb-tack--body-grey" fill="#67737B" sketch:type="MSShapeGroup"></path>
        <path d="M18.968,18.2222024 C18.933,17.2492024 20.533,15.7442024 20.533,15.7442024 C20.533,15.7442024 21.933,14.2702024 22.966,14.2702024 C23.683,14.2702024 24.402,14.8082024 25.127,14.8122024 C25.3,14.8122024 25.457,14.7842024 25.617,14.7202024 C25.781,14.6542024 25.898,14.5722024 26.015,14.4742024 C26.041,14.4502024 26.076,14.4412024 26.107,14.4132024 C26.158,14.3602024 26.154,14.3392024 26.168,14.3192024 C26.625,13.7772024 26.613,12.9812024 26.107,12.4732024 L20.025,6.39420243 C19.517,5.88620243 18.72,5.87420243 18.179,6.32920243 C18.162,6.34720243 18.138,6.34220243 18.121,6.35820243 C18.058,6.42120243 18.048,6.45620243 18.025,6.48520243 C17.927,6.60120243 17.845,6.71820243 17.793,6.83520243 C17.714,7.04320243 17.685,7.19820243 17.685,7.35520243 C17.691,8.09620243 18.23,8.81620243 18.23,9.53120243 C18.23,10.5672024 16.755,11.9672024 16.755,11.9672024 C16.756,11.9662024 15.248,13.5672024 14.277,13.5312024 C12.318,13.4572024 12.164,12.9442024 10.562,13.0532024 C9.429,13.1322024 8.445,14.3102024 8.445,14.3102024 L12.146,19.1842024 L8.714,22.6172024 L5.5,26.8762024 L5.625,26.9992024 L9.884,23.7852024 L13.316,20.3542024 L18.189,24.0542024 C18.189,24.0542024 19.367,23.0692024 19.445,21.9362024 C19.556,20.3372024 19.041,20.1802024 18.968,18.2222024 Z M18.968,18.2222024" id="thumb-tack--title-grey" fill="#3A434E" sketch:type="MSShapeGroup"></path>
    </g>
</svg>

<svg width="32" height="232" viewBox="0 0 32 232" xmlns="http://www.w3.org/2000/svg" xmlns:sketch="http://www.bohemiancoding.com/sketch/ns"><title>thumb--tack</title><g sketch:type="MSPage" fill="none"><path d="M21.469 138.222c-.035-.973 1.565-2.478 1.565-2.478s1.4-1.474 2.433-1.474l2.161.542c.173 0 .33-.028.49-.092.164-.066.281-.148.398-.246l.092-.061.061-.094c.457-.542.445-1.338-.061-1.846l-6.082-6.079c-.508-.508-1.305-.52-1.846-.065l-.058.029-.096.127c-.098.116-.18.233-.232.35-.079.208-.108.363-.108.52.006.741.545 1.461.545 2.176 0 1.036-1.475 2.436-1.475 2.436.001-.001-1.507 1.6-2.478 1.564-1.959-.074-2.113-.587-3.715-.478-1.133.079-2.117 1.257-2.117 1.257l3.701 4.874-3.432 3.433-3.214 4.259.125.123 4.259-3.214 3.432-3.431 4.873 3.7s1.178-.985 1.256-2.118c.111-1.599-.404-1.756-.477-3.714zm0 0" fill="#206FAC" sketch:type="MSShapeGroup"/><path d="M18.968 98.222c-.035-.973 1.565-2.478 1.565-2.478s1.4-1.474 2.433-1.474l2.161.542c.173 0 .33-.028.49-.092.164-.066.281-.148.398-.246l.092-.061.061-.094c.457-.542.445-1.338-.061-1.846l-6.082-6.079c-.508-.508-1.305-.52-1.846-.065l-.058.029-.096.127c-.098.116-.18.233-.232.35-.079.208-.108.363-.108.52.006.741.545 1.461.545 2.176 0 1.036-1.475 2.436-1.475 2.436.001-.001-1.507 1.6-2.478 1.564-1.959-.074-2.113-.587-3.715-.478-1.133.079-2.117 1.257-2.117 1.257l3.701 4.874-3.432 3.433-3.214 4.259.125.123 4.259-3.214 3.432-3.431 4.873 3.7s1.178-.985 1.256-2.118c.111-1.599-.404-1.756-.477-3.714zm0 0" fill="#fff" sketch:type="MSShapeGroup"/><path d="M18.968 58.222c-.035-.973 1.565-2.478 1.565-2.478s1.4-1.474 2.433-1.474l2.161.542c.173 0 .33-.028.49-.092.164-.066.281-.148.398-.246l.092-.061.061-.094c.457-.542.445-1.338-.061-1.846l-6.082-6.079c-.508-.508-1.305-.52-1.846-.065l-.058.029-.096.127c-.098.116-.18.233-.232.35-.079.208-.108.363-.108.52.006.741.545 1.461.545 2.176 0 1.036-1.475 2.436-1.475 2.436.001-.001-1.507 1.6-2.478 1.564-1.959-.074-2.113-.587-3.715-.478-1.133.079-2.117 1.257-2.117 1.257l3.701 4.874-3.432 3.433-3.214 4.259.125.123 4.259-3.214 3.432-3.431 4.873 3.7s1.178-.985 1.256-2.118c.111-1.599-.404-1.756-.477-3.714zm0 0" fill="#67737B" sketch:type="MSShapeGroup"/><path d="M18.968 18.222c-.035-.973 1.565-2.478 1.565-2.478s1.4-1.474 2.433-1.474l2.161.542c.173 0 .33-.028.49-.092.164-.066.281-.148.398-.246l.092-.061.061-.094c.457-.542.445-1.338-.061-1.846l-6.082-6.079c-.508-.508-1.305-.52-1.846-.065l-.058.029-.096.127c-.098.116-.18.233-.232.35-.079.208-.108.363-.108.52.006.741.545 1.461.545 2.176 0 1.036-1.475 2.436-1.475 2.436.001-.001-1.507 1.6-2.478 1.564-1.959-.074-2.113-.587-3.715-.478-1.133.079-2.117 1.257-2.117 1.257l3.701 4.874-3.432 3.433-3.214 4.259.125.123 4.259-3.214 3.432-3.431 4.873 3.7s1.178-.985 1.256-2.118c.111-1.599-.404-1.756-.477-3.714zm0 0" fill="#3A434E" sketch:type="MSShapeGroup"/></g></svg>
